X:109
T:Dawley's Delight
T:Scart, The
R:slide
D:Catherine McEvoy, Caoimh\'in \'O Raghallaigh & M\'iche\'al \'O Raghallaigh
Z:id:hn-slide-109
M:6/8
L:1/8
K:D
dcB | A2D FED | F2A ABA | G2A F2A | E2F G2B |
A2D FED | F2A d2f | efe B2c | d3 :|
|: def | a2f a2f | a2f d2f | ebb b2a | b3 baf |
a2f a2f | fef d2f | efe B2c | d3 :|

